HelpDesk_TicketSystem/ClientApp/src/assets/images/vector-3.svg

<svg width="364" height="223" viewBox="0 0 364 223" fill="none" xmlns="http://www.w3.org/2000/svg">
<g clip-path="url(#clip0_17_156)">
<path d="M203.4 89.6161C261.6 59.7309 246.1 18.9326 280.4 10.0342C313 1.63952 335 29.7618 345.3 57.8841C355.4 85.5867 346.5 127.308 330.4 152.241C310.4 183.301 284.3 196.565 243.5 207.31C206.5 217.132 101.3 200.93 107.5 149.303C112.8 104.307 169.9 106.741 203.4 89.6161Z" fill="white"/>
<path d="M242.1 70.9799C239.1 71.9873 236.6 73.9181 235 76.2686C234.2 77.3599 233.7 78.5352 233.1 79.7104C232.458 81.1651 232.087 82.6941 232 84.2436V85.0831L232.3 86.8459C232.5 87.6854 232.9 88.5249 233.4 89.2804C234.2 90.3717 235.1 91.2951 236.2 92.1346C238.42 93.7578 241.047 94.9404 243.887 95.5944C246.726 96.2484 249.704 96.357 252.6 95.9122C254.77 95.5792 256.842 94.8949 258.7 93.8975C260.1 93.058 261.2 92.2186 262.1 90.9594C262.9 89.868 263.4 88.4409 263.7 87.2657C264.1 86.0904 264.2 84.9152 264.3 83.8238C264.4 82.9004 264.3 82.1449 264.1 81.1375C263.895 79.7698 263.275 78.4692 262.3 77.3599C260.978 75.9732 259.39 74.7815 257.6 73.8341C256.9 72.9107 255.9 72.491 254.7 72.1552L250.9 70.9799C249.5 70.6441 247.9 70.3923 246.4 70.3923C244.9 70.3923 243.4 70.5602 242.1 70.9799ZM246.7 78.5352L249.1 79.0388L249.7 79.4586C250.6 79.8783 251.6 80.2981 252.5 80.8857L253.8 81.977V82.0609L254 82.7325V84.5794L253.3 86.762L253 87.0978L252.8 87.2657L251.6 87.7694L250.1 88.1051H247.7L245 87.5175L243.3 86.678L242.1 85.6707C242.1 85.6707 242.1 85.5028 241.9 85.4188L241.8 85.167V83.9917C242 83.1523 242.3 82.3967 242.7 81.6412L244.1 79.5425L244.9 78.871L245.4 78.6191H245.6L246.6 78.5352H246.7ZM245.2 78.7031L244.7 78.871L245.2 78.7031ZM242.2 85.6707L242.5 86.1744L242.2 85.6707ZM242.6 85.9225C242.6 86.0904 242.9 86.1744 243 86.3423L242.6 85.9225ZM138 143.594C138 144.014 138.4 144.434 139 144.434C139.5 144.434 140 144.098 140 143.594C140 143.174 139.6 142.755 139 142.755C138.735 142.755 138.48 142.843 138.293 143.001C138.105 143.158 138 143.372 138 143.594ZM154 128.82C154 129.071 154.2 129.323 154.6 129.323C154.9 129.323 155.2 129.155 155.2 128.82C155.2 128.568 155 128.316 154.6 128.316C154.3 128.316 154 128.568 154 128.82ZM168 121.432C168 121.684 168.2 121.936 168.6 121.936C168.9 121.936 169.2 121.768 169.2 121.432C169.2 121.18 169 120.928 168.6 120.928C168.3 120.928 168 121.18 168 121.432ZM156 147.456C156 147.708 156.2 147.959 156.6 147.959C156.9 147.959 157.2 147.792 157.2 147.456C157.2 147.204 157 146.952 156.6 146.952C156.3 146.952 156 147.204 156 147.456ZM136 120.425C136 120.677 136.2 120.928 136.6 120.928C136.9 120.928 137.2 120.761 137.2 120.425C137.2 120.173 137 119.921 136.6 119.921C136.3 119.921 136 120.173 136 120.425ZM140 102.544C139.984 102.669 140.002 102.794 140.052 102.913C140.101 103.031 140.182 103.138 140.287 103.226C140.393 103.315 140.52 103.382 140.661 103.424C140.802 103.466 140.952 103.481 141.1 103.467C141.248 103.481 141.398 103.466 141.539 103.424C141.68 103.382 141.807 103.315 141.913 103.226C142.018 103.138 142.099 103.031 142.148 102.913C142.198 102.794 142.216 102.669 142.2 102.544C142.216 102.42 142.198 102.294 142.148 102.176C142.099 102.058 142.018 101.95 141.913 101.862C141.807 101.773 141.68 101.706 141.539 101.664C141.398 101.622 141.248 101.607 141.1 101.621C140.5 101.621 140 102.04 140 102.544ZM82.5 127.896C82.5 129.071 83.5 130.079 85.1 130.079C86.5 130.079 87.7 129.239 87.7 127.896C87.7 126.721 86.7 125.713 85.1 125.713C84.4183 125.734 83.7713 125.971 83.289 126.376C82.8067 126.781 82.5248 127.324 82.5 127.896ZM13.1 166.092C13.1 166.764 13.7 167.351 14.6 167.351C15.4 167.351 16.1 166.848 16.1 166.092C16.1 165.42 15.5 164.833 14.6 164.833C13.8 164.833 13.1 165.42 13.1 166.092ZM5 194.214C5 195.39 6 196.481 7.7 196.481C9.1 196.481 10.3 195.641 10.3 194.214C10.3 193.039 9.3 192.032 7.7 192.032C7.00091 192.031 6.32888 192.259 5.82531 192.666C5.32175 193.073 5.02589 193.628 5 194.214ZM177.6 135.451C177.6 135.703 177.9 135.955 178.3 135.955C178.6 135.955 178.9 135.703 178.9 135.451C178.9 135.116 178.6 134.864 178.3 134.864C177.9 134.864 177.6 135.116 177.6 135.451ZM201 134.024C201 134.36 201.3 134.612 201.6 134.612C202 134.612 202.3 134.36 202.3 134.024C202.3 133.772 202 133.521 201.6 133.521C201.3 133.521 201 133.772 201 134.024ZM267.7 149.471C267.7 150.898 269 152.157 271 152.157C272.7 152.157 274.2 151.066 274.2 149.471C274.2 147.959 272.9 146.7 271 146.7C270.125 146.7 269.285 146.992 268.667 147.512C268.048 148.031 267.7 148.736 267.7 149.471ZM242 115.22C242 115.808 242.5 116.311 243.2 116.311C243.9 116.311 244.5 115.892 244.5 115.22C244.5 114.716 244 114.213 243.2 114.213C242.6 114.213 242 114.716 242 115.22ZM314 17.8414C314 19.2685 315.3 20.6116 317.3 20.6116C319.1 20.6116 320.6 19.4364 320.6 17.8414C320.6 16.3303 319.3 15.0711 317.3 15.0711C316.433 15.0922 315.608 15.3909 314.994 15.9059C314.381 16.4209 314.025 17.1133 314 17.8414ZM246 23.4658C246 24.2213 246.7 24.8929 247.7 24.8929C248.7 24.8929 249.4 24.3053 249.4 23.4658C249.4 22.6264 248.7 22.0387 247.7 22.0387C246.7 22.0387 246 22.7103 246 23.4658ZM319.4 -69.4637C319.4 -68.96 319.9 -68.4563 320.6 -68.4563C321.2 -68.4563 321.8 -68.8761 321.8 -69.4637C321.8 -69.9674 321.3 -70.4711 320.6 -70.4711C319.9 -70.4711 319.4 -69.9674 319.4 -69.4637Z" fill="#C44E32"/>
</g>
<defs>
<clipPath id="clip0_17_156">
<rect width="364" height="223" fill="white"/>
</clipPath>
</defs>
</svg>

<svg width="364" height="223" fill="none" xmlns="http://www.w3.org/2000/svg"><g clip-path="url(#a)"><path d="M203.4 89.616c58.2-29.885 42.7-70.683 77-79.582C313 1.64 335 29.762 345.3 57.884c10.1 27.703 1.2 69.424-14.9 94.357-20 31.06-46.1 44.324-86.9 55.069-37 9.822-142.2-6.38-136-58.007 5.3-44.996 62.4-42.562 95.9-59.687Z" fill="#fff"/><path d="M242.1 70.98c-3 1.007-5.5 2.938-7.1 5.289-.8 1.09-1.3 2.266-1.9 3.441a13.018 13.018 0 0 0-1.1 4.534v.84l.3 1.762c.2.84.6 1.679 1.1 2.434a13.72 13.72 0 0 0 2.8 2.855c2.22 1.623 4.847 2.805 7.687 3.46 2.839.653 5.817.762 8.713.317a19.012 19.012 0 0 0 6.1-2.015c1.4-.839 2.5-1.678 3.4-2.938.8-1.091 1.3-2.518 1.6-3.693.4-1.176.5-2.35.6-3.442.1-.924 0-1.68-.2-2.686-.205-1.368-.825-2.669-1.8-3.778a18.315 18.315 0 0 0-4.7-3.526c-.7-.923-1.7-1.343-2.9-1.679l-3.8-1.175c-1.4-.336-3-.588-4.5-.588s-3 .168-4.3.588Zm4.6 7.555 2.4.504.6.42c.9.42 1.9.84 2.8 1.427l1.3 1.091v.084l.2.671v1.847l-.7 2.183-.3.336-.2.168-1.2.503-1.5.336h-2.4l-2.7-.588-1.7-.839-1.2-1.007s0-.168-.2-.252l-.1-.252v-1.175c.2-.84.5-1.595.9-2.35l1.4-2.1.8-.671.5-.252h.2l1-.084h.1Zm-1.5.168-.5.168.5-.168Zm-3 6.968.3.503-.3-.503Zm.4.251c0 .168.3.252.4.42l-.4-.42ZM138 143.594c0 .42.4.84 1 .84.5 0 1-.336 1-.84 0-.42-.4-.839-1-.839a1.1 1.1 0 0 0-.707.246.775.775 0 0 0-.293.593Zm16-14.774c0 .251.2.503.6.503.3 0 .6-.168.6-.503 0-.252-.2-.504-.6-.504-.3 0-.6.252-.6.504Zm14-7.388c0 .252.2.504.6.504.3 0 .6-.168.6-.504 0-.252-.2-.504-.6-.504-.3 0-.6.252-.6.504Zm-12 26.024c0 .252.2.503.6.503.3 0 .6-.167.6-.503 0-.252-.2-.504-.6-.504-.3 0-.6.252-.6.504Zm-20-27.031c0 .252.2.503.6.503.3 0 .6-.167.6-.503 0-.252-.2-.504-.6-.504-.3 0-.6.252-.6.504Zm4-17.881a.712.712 0 0 0 .052.369c.049.118.13.225.235.313.106.089.233.156.374.198.141.042.291.057.439.043a1.16 1.16 0 0 0 .439-.043c.141-.042.268-.109.374-.198a.825.825 0 0 0 .235-.313.712.712 0 0 0 .052-.369.708.708 0 0 0-.052-.368.828.828 0 0 0-.235-.314 1.041 1.041 0 0 0-.374-.198 1.16 1.16 0 0 0-.439-.043c-.6 0-1.1.419-1.1.923Zm-57.5 25.352c0 1.175 1 2.183 2.6 2.183 1.4 0 2.6-.84 2.6-2.183 0-1.175-1-2.183-2.6-2.183-.682.021-1.329.258-1.811.663s-.764.948-.789 1.52Zm-69.4 38.196c0 .672.6 1.259 1.5 1.259.8 0 1.5-.503 1.5-1.259 0-.672-.6-1.259-1.5-1.259-.8 0-1.5.587-1.5 1.259ZM5 194.214c0 1.176 1 2.267 2.7 2.267 1.4 0 2.6-.84 2.6-2.267 0-1.175-1-2.182-2.6-2.182-.7-.001-1.371.227-1.875.634-.503.407-.8.962-.825 1.548Zm172.6-58.763c0 .252.3.504.7.504.3 0 .6-.252.6-.504 0-.335-.3-.587-.6-.587-.4 0-.7.252-.7.587Zm23.4-1.427c0 .336.3.588.6.588.4 0 .7-.252.7-.588 0-.252-.3-.503-.7-.503-.3 0-.6.251-.6.503Zm66.7 15.447c0 1.427 1.3 2.686 3.3 2.686 1.7 0 3.2-1.091 3.2-2.686 0-1.512-1.3-2.771-3.2-2.771-.875 0-1.715.292-2.333.812-.619.519-.967 1.224-.967 1.959ZM242 115.22c0 .588.5 1.091 1.2 1.091s1.3-.419 1.3-1.091c0-.504-.5-1.007-1.3-1.007-.6 0-1.2.503-1.2 1.007Zm72-97.379c0 1.427 1.3 2.77 3.3 2.77 1.8 0 3.3-1.175 3.3-2.77 0-1.51-1.3-2.77-3.3-2.77-.867.021-1.692.32-2.306.835-.613.515-.969 1.207-.994 1.935Zm-68 5.625c0 .755.7 1.427 1.7 1.427s1.7-.588 1.7-1.427c0-.84-.7-1.427-1.7-1.427s-1.7.671-1.7 1.427Zm73.4-92.93c0 .504.5 1.008 1.2 1.008.6 0 1.2-.42 1.2-1.008 0-.503-.5-1.007-1.2-1.007s-1.2.504-1.2 1.007Z" fill="#C44E32"/></g><defs><clipPath id="a"><path fill="#fff" d="M0 0h364v223H0z"/></clipPath></defs></svg>
